frontend/public/images/client-logos/exas.svg

<svg xmlns="http://www.w3.org/2000/svg" height="149.43" viewBox="0 0 432.01 149.43" width="432.01" ><title>Exact Sciences logo</title><path d="M50.24,1.48V14H18.4V28.38H47.79v12H18.4V56.12H50.6V68.6H5V1.48ZM164.91,68.6h14.24L158.26,1.48H138.75L117.86,68.6h14l4.25-14.15h24.59ZM139.7,42.34l8.66-28.79L157,42.34Zm42.12,1.3V26.35C181.82,11.28,192.45,0,208.91,0c16.64,0,26.53,10.91,26.53,25.89h-13.5c-.19-8.41-4.81-13.5-13-13.5-8.41,0-13.5,5.64-13.5,14.7V43c0,9.15,5.08,14.79,13.5,14.7,8.23.09,12.85-5,13-13.5h13.5c0,15.16-9.89,26-26.53,25.89C192.46,70.17,181.82,58.89,181.82,43.64ZM290.94,1.48V14h-18.4V68.6H259V14h-18.4V1.48ZM50.67,100.62v1.29H37.08v-.83c0-5.64-4-9.34-11.56-9.34-6.29,0-10,3.14-9.89,7.21.09,5.36,6.56,6.75,13.59,8.51l2.22.55c13.22,3.33,20.8,9.15,20.89,20.15.09,13.22-10.17,21.17-25,21.17C10.91,149.33,0,140.45,0,124.74v-.09H13.59v.65C13.59,132.88,19,137,27.37,137c6.66,0,11.28-2.68,11.28-7.58,0-5.08-4-6.66-13.22-9l-2.22-.55C9.43,116.43,2,111.16,2,100.07c-.09-11.83,10-20.62,23.85-20.62C41.06,79.45,50.67,88.32,50.67,100.62ZM59.29,123V105.7c0-15.07,10.63-26.35,27.09-26.35,16.64,0,26.53,10.91,26.53,25.89H99.41c-.18-8.41-4.81-13.5-13-13.5-8.41,0-13.5,5.64-13.5,14.7v15.9c0,9.15,5.08,14.79,13.5,14.7,8.23.09,12.85-5,13-13.5h13.5c0,15.16-9.89,26-26.53,25.89C69.92,149.53,59.29,138.25,59.29,123Zm76.48,25h-13.5V80.83h13.5Zm57.31-67.12V93.31H161.24v14.42h29.39v12H161.24v15.72h32.2V148H147.83V80.83Zm49.33,0V123.5L216.06,80.83H203.12V148h13.31V105.27L242.78,148h12.94V80.83ZM265.61,123V105.7c0-15.07,10.63-26.35,27.09-26.35,16.64,0,26.53,10.91,26.53,25.89h-13.5c-.18-8.41-4.81-13.5-13-13.5-8.41,0-13.5,5.64-13.5,14.7v15.9c0,9.15,5.08,14.79,13.5,14.7,8.23.09,12.85-5,13-13.5h13.5c0,15.16-9.89,26-26.53,25.89C276.24,149.53,265.61,138.25,265.61,123ZM373.83,80.83V93.31H342v14.42h29.39v12H342v15.72h32.2V148H328.59V80.83Zm56.52,19.79v1.29H416.76v-.83c0-5.64-4-9.34-11.56-9.34-6.29,0-10,3.14-9.89,7.21.09,5.36,6.56,6.75,13.59,8.51l2.22.55c13.22,3.33,20.8,9.15,20.89,20.15.09,13.22-10.17,21.17-25,21.17-16.46,0-27.36-8.88-27.36-24.59v-.09h13.59v.65c0,7.58,5.45,11.65,13.77,11.65,6.66,0,11.28-2.68,11.28-7.58,0-5.08-4-6.66-13.22-9l-2.22-.55c-13.78-3.42-21.17-8.69-21.26-19.78-.09-11.83,10-20.62,23.85-20.62C420.73,79.45,430.35,88.32,430.35,100.62ZM76.69,34.12l-.64.55c-9.46-7.92-17.2-18.86-17.2-33.18H72.9c0,9.93,3.87,17.34,13.17,25l-.42.35Zm19.41.54c-.18.15-.36.32-.55.47l-9,7.3c-.18.14-.34.29-.51.43C95.31,50.5,99.33,58.7,99.24,68.6h14.05C113.39,54.41,105.52,42.61,96.1,34.66Z"></path><path d="M99.25,1.48c0,9.93-3.87,17.34-13.17,25l-.42.35-9,7.3-.64.55c-9.42,8-17.2,19.74-17.2,33.93H72.9c-.09-9.89,3.93-18.09,13.17-25.74.17-.14.33-.29.51-.43l9-7.3c.19-.15.37-.31.55-.47,9.46-7.92,17.2-18.86,17.2-33.18h-14Z" fill="#a275ff"></path></svg>

<?xml version="1.0" encoding="UTF-8"?>
<svg id="Layer_1" xmlns="http://www.w3.org/2000/svg" version="1.1" viewBox="0 0 432 149.4">
  <!-- Generator: Adobe Illustrator 29.2.1, SVG Export Plug-In . SVG Version: 2.1.0 Build 116)  -->
  <defs>
    <style>
      .st0 {
        fill: #fff;
      }

      .st1 {
        fill: #a275ff;
      }
    </style>
  </defs>
  <path class="st0" d="M50.2,1.5v12.5h-31.8v14.4h29.4v12h-29.4v15.7h32.2v12.5H5V1.5h45.2ZM164.9,68.6h14.2L158.3,1.5h-19.5l-20.9,67.1h14l4.2-14.2h24.6l4.2,14.2ZM139.7,42.3l8.7-28.8,8.6,28.8h-17.3ZM181.8,43.6v-17.3c0-15.1,10.6-26.4,27.1-26.4s26.5,10.9,26.5,25.9h-13.5c-.2-8.4-4.8-13.5-13-13.5s-13.5,5.6-13.5,14.7v15.9c0,9.2,5.1,14.8,13.5,14.7,8.2,0,12.9-5,13-13.5h13.5c0,15.2-9.9,26-26.5,25.9-16.4,0-27.1-11.2-27.1-26.4h0ZM290.9,1.5v12.5h-18.4v54.6h-13.5V14h-18.4V1.5h50.3ZM50.7,100.6v1.3h-13.6v-.8c0-5.6-4-9.3-11.6-9.3s-10,3.1-9.9,7.2c0,5.4,6.6,6.8,13.6,8.5l2.2.6c13.2,3.3,20.8,9.2,20.9,20.1,0,13.2-10.2,21.2-25,21.2S0,140.4,0,124.7h0c0,0,13.6,0,13.6,0v.7c0,7.6,5.4,11.7,13.8,11.7s11.3-2.7,11.3-7.6-4-6.7-13.2-9l-2.2-.6c-13.8-3.4-21.2-8.7-21.2-19.8,0-11.8,10-20.6,23.9-20.6s24.8,8.9,24.8,21.2ZM59.3,123v-17.3c0-15.1,10.6-26.3,27.1-26.3s26.5,10.9,26.5,25.9h-13.5c-.2-8.4-4.8-13.5-13-13.5s-13.5,5.6-13.5,14.7v15.9c0,9.1,5.1,14.8,13.5,14.7,8.2,0,12.8-5,13-13.5h13.5c0,15.2-9.9,26-26.5,25.9-16.5.1-27.1-11.2-27.1-26.4ZM135.8,148h-13.5v-67.2h13.5v67.2ZM193.1,80.9v12.4h-31.8v14.4h29.4v12h-29.4v15.7h32.2v12.6h-45.6v-67.2h45.2ZM242.4,80.9v42.6l-26.4-42.7h-12.9v67.2h13.3v-42.7l26.4,42.7h12.9v-67.2h-13.3ZM265.6,123v-17.3c0-15.1,10.6-26.3,27.1-26.3s26.5,10.9,26.5,25.9h-13.5c-.2-8.4-4.8-13.5-13-13.5s-13.5,5.6-13.5,14.7v15.9c0,9.1,5.1,14.8,13.5,14.7,8.2,0,12.9-5,13-13.5h13.5c0,15.2-9.9,26-26.5,25.9-16.5.1-27.1-11.2-27.1-26.4ZM373.8,80.8v12.5h-31.8v14.4h29.4v12h-29.4v15.7h32.2v12.6h-45.6v-67.2h45.2ZM430.3,100.6v1.3h-13.6v-.8c0-5.6-4-9.3-11.6-9.3s-10,3.1-9.9,7.2c0,5.4,6.6,6.8,13.6,8.5l2.2.6c13.2,3.3,20.8,9.2,20.9,20.1,0,13.2-10.2,21.2-25,21.2s-27.4-8.9-27.4-24.6h0c0,0,13.6,0,13.6,0v.7c0,7.6,5.5,11.7,13.8,11.7s11.3-2.7,11.3-7.6-4-6.7-13.2-9l-2.2-.6c-13.8-3.4-21.2-8.7-21.3-19.8,0-11.8,10-20.6,23.9-20.6,15.3,0,24.9,8.9,24.9,21.2h0ZM76.7,34.1l-.6.5c-9.5-7.9-17.2-18.9-17.2-33.2h14c0,9.9,3.9,17.3,13.2,25l-.4.4-9,7.3ZM96.1,34.7c-.2.2-.4.3-.6.5l-9,7.3c-.2.1-.3.3-.5.4,9.3,7.6,13.3,15.8,13.2,25.7h14.1c0-14.2-7.8-26-17.2-33.9Z"/>
  <path class="st1" d="M99.2,1.5c0,9.9-3.9,17.3-13.2,25l-.4.4-9,7.3-.6.5c-9.4,8-17.2,19.7-17.2,33.9h14.1c0-9.9,3.9-18.1,13.2-25.7.2-.1.3-.3.5-.4l9-7.3c.2-.2.4-.3.6-.5,9.5-7.9,17.2-18.9,17.2-33.2h-14.1Z"/>
</svg>
